build/svg/cmd/32/pagemargin.svg

<?xml version="1.0" encoding="UTF-8" standalone="no"?>
<svg
   xmlns:dc="http://purl.org/dc/elements/1.1/"
   xmlns:cc="http://creativecommons.org/ns#"
   xmlns:rdf="http://www.w3.org/1999/02/22-rdf-syntax-ns#"
   xmlns:svg="http://www.w3.org/2000/svg"
   xmlns="http://www.w3.org/2000/svg"
   xmlns:sodipodi="http://sodipodi.sourceforge.net/DTD/sodipodi-0.dtd"
   xmlns:inkscape="http://www.inkscape.org/namespaces/inkscape"
   height="32"
   viewBox="0 0 32 32"
   width="32"
   version="1.1"
   id="svg8"
   sodipodi:docname="pagemargin.svg"
   inkscape:version="0.92.5 (2060ec1f9f, 2020-04-08)"
   inkscape:export-filename="/home/jupiter007/Libreoffice yaru theme fullcolor/build/cmd/32/pagemargin.png"
   inkscape:export-xdpi="95"
   inkscape:export-ydpi="95">
  <metadata
     id="metadata14">
    <rdf:RDF>
      <cc:Work
         rdf:about="">
        <dc:format>image/svg+xml</dc:format>
        <dc:type
           rdf:resource="http://purl.org/dc/dcmitype/StillImage" />
      </cc:Work>
    </rdf:RDF>
  </metadata>
  <defs
     id="defs12" />
  <sodipodi:namedview
     pagecolor="#ffffff"
     bordercolor="#666666"
     borderopacity="1"
     objecttolerance="10"
     gridtolerance="10"
     guidetolerance="10"
     inkscape:pageopacity="0"
     inkscape:pageshadow="2"
     inkscape:window-width="1920"
     inkscape:window-height="1011"
     id="namedview10"
     showgrid="true"
     inkscape:zoom="20.85965"
     inkscape:cx="12.181132"
     inkscape:cy="13.829924"
     inkscape:window-x="0"
     inkscape:window-y="32"
     inkscape:window-maximized="1"
     inkscape:current-layer="svg8">
    <inkscape:grid
       type="xygrid"
       id="grid841" />
  </sodipodi:namedview>
  <rect
     y="4"
     x="4"
     height="24"
     width="24"
     id="rect860"
     style="opacity:0.6;fill:#000000;fill-opacity:1;fill-rule:nonzero;stroke:#000000;stroke-width:2;stroke-linecap:round;stroke-linejoin:round;stroke-miterlimit:4;stroke-dasharray:none;stroke-opacity:1" />
  <rect
     style="opacity:1;fill:#ffffff;fill-opacity:1;fill-rule:nonzero;stroke:none;stroke-width:3;stroke-linecap:round;stroke-linejoin:round;stroke-miterlimit:4;stroke-dasharray:none;stroke-opacity:1"
     id="rect858"
     width="24"
     height="24"
     x="4"
     y="4" />
  <path
     style="fill:#762572;stroke-width:1.33333004"
     inkscape:connector-curvature="0"
     id="path4"
     d="M 7.99999,4 V 7.99999 L 4,8.00004 v 0.99995 l 3.99999,-5e-5 v 14 L 4,22.99999 V 24 l 3.99999,-5e-5 V 28 H 9 V 23.99995 H 23 V 28 h 1 v -4.00005 l 4,1e-5 v -1.00001 l -4,-10e-6 v -14 l 4,10e-6 V 8 l -4,-10e-6 V 4 H 23 V 7.99999 H 9 V 4 Z M 9,8.99994 h 14 v 14 H 9 Z"
     sodipodi:nodetypes="cccccccccccccccccccccccccccccccccc" />
</svg>

<svg xmlns="http://www.w3.org/2000/svg" height="32" width="32"><path opacity=".6" stroke="#000" stroke-width="2" stroke-linecap="round" stroke-linejoin="round" d="M4 4h24v24H4z"/><path fill="#fff" d="M4 4h24v24H4z"/><path d="M8 4v4H4v1h4v14H4v1h4v4h1v-4h14v4h1v-4h4v-1h-4V9h4V8h-4V4h-1v4H9V4zm1 5h14v14H9z" fill="#762572"/></svg>
